X: 23
T: Hag At The Churn
R: jig
M: 6/8
L: 1/8
K: Dmix
|: "D" A2G ADD|A2G Adc | "D" A2G ADD |"C"EFG "Am" EFG :|
   "D" AdB "Am7" c3 | "D" Add "Am" efg | "D" AdB "Am7" cBc | GEF "C" GED|
   "D" AdB "Am7" c3 | "D" Add "Am" efg | "C" age "G" dcA| "Am7" GEF "D"GED :|


